X:32
T:Lillibullero
T:Lilibullero
T:Lilli Bullero
T:Lilly Bolero
T:Lily Bolero
R:march
Z:id:hn-march-32
M:6/8
L:1/8
K:G
GAG B2B | ABA c3 | BdG c2B |1 AGF G2D :|2 AGF G3 ||
|: g2f g2d | de=f e2d | def gde | dcB A2d |
edc Bcd | edc Bcd | e/f/gG c2B |1 AGF G3 :|2 AGF G2D ||
<end>
<start>
